X: 6
T: Lady Anne Montgomery
R: reel
M: 4/4
L: 1/8
K: Dmaj
G|FADA FADA|FAdA BABd|FADF EDEF|DB,A,B, DDD D||
e| fefg fede|fedB ABde|fefg fede|fgaf ddd de|
fefg fede|fedB ABde|faef dBAg|fafe ddd d|]


Tune 59	Setting 59

